X:1
T:Title
%%score { 1 | ( 2 3 ) }
L:1/8
M:9/8
K:C
V:1 treble nm="Grand Piano"
V:2 bass 
V:3 bass 
V:1
 z3 z3[Q:1/4=100] [EG][FA][EG] | [Ec]3 [EG]3 [EG][FA]G | c3 .A3 [CAc][CGB][CFA] | %3
 [EG]3- [EG][_E^F][=EG] [Ec][Fd][Ge] |[M:3/4] [Gd]6 |[M:3/8] [EG][FA][EG] | %6
[M:9/8] [Ec]3 [EG]2 [CE] [EG][Ec][Ge] | d3 .A3 dcA | Gcd e3 dAB |[M:3/4] [Ec]6 |[M:3/8] BBB | %11
[M:9/8] B3 .d3 ABA | [EG]3 .[Ec]3 [Ec][FB][Gc] | [Fd]3 .[Fd]3 [^Fd][Fe][Fd] |[M:3/4] [Gd]6 | %15
[M:3/8] [EG][FA][EG] |[M:9/8] [Ec]3 [EG]2 [CE] [EG][Ec][Ge] | d3 .A3 dcA | Gcd e3 dAB | %19
[M:7/4] [Ec]6 z2 z2 z4 |] %20
V:2
 z3 z3 [C,C][C,C][C,C] | [C,G,]3 [C,C]3 [C,C][C,C][E,C] | A,3 z3 z3 | %3
 [C,C]3- [C,C][C,C][C,C] [C,G,][C,G,][C,C] |[M:3/4] [G,B,]6 |[M:3/8] [C,C][C,C][C,C] | %6
[M:9/8] [C,G,]3 [C,C]2 [C,G,] [C,C][C,C][C,C] | [F,F]3- [F,CF]3 [F,A,F][F,A,F][F,CF] | %8
 [G,CE][G,CE][G,CF] [G,CG]3 [G,B,F]2 [G,DF] |[M:3/4][K:bass] [C,C]6 | %10
[M:3/8][K:treble] [G,DG][G,DG][G,DG] |[M:9/8] [G,DG]3 .[G,B,G]3 [G,B,F][G,B,F][G,B,F] | %12
 [C,C]3 .[C,G,]3 [C,G,][D,G,][E,C] | [F,A,]3 .[D,A,]3 [D,A,][D,A,][D,C] |[M:3/4] [G,B,]6 | %15
[M:3/8] [C,C][C,C][C,C] |[M:9/8] [C,G,]3 [C,C]2 [C,G,] [C,C][C,C][C,C] | %17
 [F,F]3- [F,CF]3 [F,A,F][F,A,F][F,CF] | [G,CE][G,CE][G,CF] [G,CG]3 [G,B,F]2 [G,DF] | %19
[M:7/4][K:bass] [C,C]6 z2 z2 z4 |] %20
V:3
 x9 | x9 | [F,F]3- [F,CF]3 F,F,F, | x9 |[M:3/4] x6 |[M:3/8] x3 |[M:9/8] x9 | A,3 z3 z3 | x9 | %9
[M:3/4][K:bass] x6 |[M:3/8][K:treble] x3 |[M:9/8] x9 | x9 | x9 |[M:3/4] x6 |[M:3/8] x3 | %16
[M:9/8] x9 | A,3 z3 z3 | x9 |[M:7/4][K:bass] x14 |] %20

